assets/svg/1F532.svg

<svg xmlns="http://www.w3.org/2000/svg" viewBox="0 0 64 64" enable-background="new 0 0 64 64"><path fill="#405866" d="m63.928 57.1c0 3.81-3.083 6.896-6.893 6.896h-50.15c-3.804 0-6.889-3.087-6.889-6.896v-50.14c0-3.806 3.085-6.893 6.889-6.893h50.15c3.81 0 6.893 3.087 6.893 6.893v50.14"/><path fill="#354a54" d="m-.004 48.745v8.357c0 3.811 3.085 6.896 6.889 6.896h50.15c3.81 0 6.893-3.086 6.893-6.896v-50.15c-10.918 39.657-50.16 42.17-63.932 41.789"/><path fill="#fff" d="m46.48 13.524h-29.04c-2.203 0-3.99 1.787-3.99 3.99v24.2 4.84c0 2.204 1.787 3.994 3.99 3.994h29.04c2.203 0 3.989-1.79 3.989-3.994v-29.04c.0001-2.203-1.785-3.99-3.989-3.99"/></svg>

<?xml version="1.0" encoding="UTF-8" standalone="no"?>
<!-- Generator: Adobe Illustrator 16.0.0, SVG Export Plug-In . SVG Version: 6.00 Build 0)  -->

<svg
   xmlns:dc="http://purl.org/dc/elements/1.1/"
   xmlns:cc="http://creativecommons.org/ns#"
   xmlns:rdf="http://www.w3.org/1999/02/22-rdf-syntax-ns#"
   xmlns:svg="http://www.w3.org/2000/svg"
   xmlns="http://www.w3.org/2000/svg"
   xmlns:sodipodi="http://sodipodi.sourceforge.net/DTD/sodipodi-0.dtd"
   xmlns:inkscape="http://www.inkscape.org/namespaces/inkscape"
   version="1.1"
   id="Layer_1"
   x="0px"
   y="0px"
   width="64px"
   height="64px"
   viewBox="0 0 64 64"
   enable-background="new 0 0 64 64"
   xml:space="preserve"
   inkscape:version="0.48.5 r10040"
   sodipodi:docname="1F532.svg"
   inkscape:export-filename="D:\TESTINGEMOJI\SVGTEST\1F532.png"
   inkscape:export-xdpi="90"
   inkscape:export-ydpi="90"><metadata
   id="metadata3632"><rdf:RDF><cc:Work
       rdf:about=""><dc:format>image/svg+xml</dc:format><dc:type
         rdf:resource="http://purl.org/dc/dcmitype/StillImage" /><dc:title></dc:title></cc:Work></rdf:RDF></metadata><defs
   id="defs3630" /><sodipodi:namedview
   pagecolor="#ffffff"
   bordercolor="#666666"
   borderopacity="1"
   objecttolerance="10"
   gridtolerance="10"
   guidetolerance="10"
   inkscape:pageopacity="0"
   inkscape:pageshadow="2"
   inkscape:window-width="640"
   inkscape:window-height="480"
   id="namedview3628"
   showgrid="false"
   inkscape:zoom="3.6875"
   inkscape:cx="32"
   inkscape:cy="32"
   inkscape:window-x="488"
   inkscape:window-y="330"
   inkscape:window-maximized="0"
   inkscape:current-layer="Layer_1" />
<g
   id="g3616">
	<path
   fill="#405866"
   d="M63.928,57.104c0,3.81-3.083,6.896-6.893,6.896H6.885c-3.804,0-6.889-3.087-6.889-6.896V6.959   c0-3.806,3.085-6.893,6.889-6.893h50.15c3.81,0,6.893,3.087,6.893,6.893V57.104z"
   id="path3618" />
</g>
<g
   id="g3620">
	<path
   fill="#354A54"
   d="M-0.004,48.745v8.357c0,3.811,3.085,6.896,6.889,6.896h50.15c3.81,0,6.893-3.086,6.893-6.896V6.956   C53.01,46.613,13.765,49.126-0.004,48.745z"
   id="path3622" />
</g>
<g
   id="g3624">
	<path
   fill="#FFFFFF"
   d="M46.482,13.524H17.441c-2.203,0-3.99,1.787-3.99,3.99V41.71v4.84c0,2.204,1.787,3.994,3.99,3.994h29.041   c2.203,0,3.989-1.79,3.989-3.994V17.514C50.472,15.311,48.686,13.524,46.482,13.524z"
   id="path3626" />
</g>
</svg>
